src/assets/icons/twitter.svg

<svg width="20" height="18" viewBox="0 0 20 18" fill="none" xmlns="http://www.w3.org/2000/svg">
<g clip-path="url(#clip0_12_910)">
<path d="M19.962 2.808C19.2132 3.13736 18.4201 3.35469 17.608 3.453C18.4629 2.93897 19.1029 2.13305 19.41 1.184C18.617 1.647 17.74 1.984 16.804 2.171C16.1872 1.51119 15.3697 1.07354 14.4786 0.926006C13.5875 0.778478 12.6726 0.929336 11.8761 1.35515C11.0795 1.78096 10.4459 2.4579 10.0735 3.28082C9.70118 4.10374 9.61101 5.02658 9.817 5.906C8.18746 5.82748 6.59274 5.40646 5.1368 4.67039C3.68085 3.93432 2.39635 2.89972 1.367 1.634C0.999226 2.25899 0.807446 2.97185 0.812 3.697C0.811438 4.372 0.977538 5.0367 1.29555 5.63208C1.61357 6.22747 2.07367 6.73513 2.635 7.11C1.98396 7.08943 1.34728 6.91354 0.778 6.597V6.647C0.777452 7.5942 1.10472 8.5124 1.70424 9.24572C2.30376 9.97903 3.13859 10.4823 4.067 10.67C3.46531 10.831 2.83516 10.8549 2.223 10.74C2.48645 11.5551 2.99778 12.2676 3.68562 12.7782C4.37347 13.2887 5.20353 13.5718 6.06 13.588C4.6097 14.7266 2.81882 15.3446 0.975 15.343C0.65 15.343 0.325 15.323 0 15.287C1.88 16.4904 4.06584 17.129 6.298 17.127C13.842 17.127 17.963 10.881 17.963 5.473C17.963 5.298 17.963 5.123 17.951 4.948C18.751 4.373 19.451 3.648 20.001 2.824L19.961 2.808H19.962Z" fill="white"/>
</g>
<defs>
<clipPath id="clip0_12_910">
<rect width="20" height="18" fill="white"/>
</clipPath>
</defs>
</svg>

<svg height="18" width="20" class="css-1hrlzl4-TwitterLogo"><path d="M19.962 2.808a8.334 8.334 0 0 1-2.354.645 4.132 4.132 0 0 0 1.802-2.269c-.793.463-1.67.8-2.606.987a4.1 4.1 0 0 0-6.987 3.735 11.612 11.612 0 0 1-8.45-4.272 4.018 4.018 0 0 0-.555 2.063A4.1 4.1 0 0 0 2.635 7.11a4.087 4.087 0 0 1-1.857-.513v.05a4.102 4.102 0 0 0 3.289 4.023 4.163 4.163 0 0 1-1.844.07 4.114 4.114 0 0 0 3.837 2.848 8.223 8.223 0 0 1-5.085 1.755c-.325 0-.65-.02-.975-.056a11.663 11.663 0 0 0 6.298 1.84c7.544 0 11.665-6.246 11.665-11.654 0-.175 0-.35-.012-.525.8-.575 1.5-1.3 2.05-2.124l-.04-.016Z"/></svg>
